html-practice-pages/web-app-images/play.svg

<svg xmlns="http://www.w3.org/2000/svg" viewBox="0 0 640 640"><!--!Font Awesome Free 7.2.0 by @fontawesome - https://fontawesome.com License - https://fontawesome.com/license/free Copyright 2026 Fonticons, Inc.--><path d="M187.2 100.9c-12.4-6.8-27.4-6.5-39.6.7-12.2 7.2-19.6 20.3-19.6 34.4v368c0 14.1 7.5 27.2 19.6 34.4 12.1 7.2 27.2 7.5 39.6.7l336-184c12.8-7 20.8-20.5 20.8-35.1 0-14.6-8-28.1-20.8-35.1l-336-184z"/></svg>

<svg xmlns="http://www.w3.org/2000/svg" viewBox="0 0 640 640"><!--!Font Awesome Free 7.2.0 by @fontawesome - https://fontawesome.com License - https://fontawesome.com/license/free Copyright 2026 Fonticons, Inc.--><path d="M187.2 100.9C174.8 94.1 159.8 94.4 147.6 101.6C135.4 108.8 128 121.9 128 136L128 504C128 518.1 135.5 531.2 147.6 538.4C159.7 545.6 174.8 545.9 187.2 539.1L523.2 355.1C536 348.1 544 334.6 544 320C544 305.4 536 291.9 523.2 284.9L187.2 100.9z"/></svg>
